X: 324
T:Jigg,A. JaW.323
M:6/8
Q:120
S:James Winder Ms, Lancashire, 1835-41
R:Jig
O:England
A:Wyresdale,Lancashire
N:The B Strain is certainly open to interpretation..CGP
H:1/8
Z:vmp.Chris Partington, Aug 2004
K:G
"As Writ"(A/B/c)|dAG FED|dAG FED|E2FG2A|BGEE2"qu's"B/c/|!
dAG FED|dAG FED|E2FG2d|cADD2:|!
|:A|d2e fdf|ece dAG|FEDE2F|G2A BGE|!
E2Ad2e|fdf ece|dAG FED|E2FG2d|AFDD2:|]
